icons/arrow-block-downrightB.svg

<svg width="24" height="24" viewBox="0 0 24 24" fill="none" xmlns="http://www.w3.org/2000/svg">
<path d="M7.16709 15.6512L9.56709 13.2512L5.16709 8.75122C4.96709 8.55122 4.96709 8.15122 5.16709 7.95122L7.96709 5.15122C8.16709 4.95122 8.56709 4.95122 8.76709 5.15122L13.1671 9.55122L15.5671 7.15122C15.6671 7.05122 15.9671 7.05122 16.0671 7.25122L18.9671 18.2512C19.0671 18.6512 18.6671 19.1512 18.2671 18.9512L7.26709 16.0512C7.06709 16.0512 7.06709 15.7512 7.16709 15.6512Z" fill="black"/>
<path fill-rule="evenodd" clip-rule="evenodd" d="M8.36709 5.81188L5.82632 8.35265L10.6218 13.2571L8.32458 15.5544L18.1644 18.1485L15.5494 8.22958L13.1671 10.6119L8.36709 5.81188ZM8.36709 4.25122C8.66595 4.25122 9.02494 4.34841 9.29742 4.62089L13.1671 8.49056L15.0368 6.62089C15.3118 6.34587 15.6831 6.31613 15.9101 6.34451C16.175 6.37762 16.5426 6.52512 16.7379 6.91581L16.7726 6.98511L19.6948 18.0693C19.8165 18.5562 19.6332 19.0322 19.3575 19.333C19.0811 19.6345 18.5709 19.8894 18.0168 19.6609L7.13361 16.7917C6.92532 16.7615 6.73553 16.661 6.5941 16.5029C6.44082 16.3316 6.38247 16.1372 6.36213 15.9948C6.34115 15.8479 6.35184 15.701 6.3864 15.5677C6.4189 15.4423 6.48832 15.2693 6.63676 15.1209L8.51236 13.2453L4.63308 9.27786C4.3634 9.00583 4.26709 8.64873 4.26709 8.35122C4.26709 8.05236 4.36428 7.69337 4.63676 7.42089L7.43676 4.62089C7.70924 4.34841 8.06823 4.25122 8.36709 4.25122Z" fill="black"/>
</svg>

<svg xmlns="http://www.w3.org/2000/svg" fill="none" viewBox="0 0 24 24">
  <path fill="#000" d="m7.167 15.651 2.4-2.4-4.4-4.5c-.2-.2-.2-.6 0-.8l2.8-2.8c.2-.2.6-.2.8 0l4.4 4.4 2.4-2.4c.1-.1.4-.1.5.1l2.9 11c.1.4-.3.9-.7.7l-11-2.9c-.2 0-.2-.3-.1-.4Z"/>
  <path fill="#000" fill-rule="evenodd" d="m8.367 5.812-2.54 2.54 4.795 4.905-2.297 2.297 9.84 2.594-2.616-9.918-2.382 2.382-4.8-4.8Zm0-1.56c.299 0 .658.096.93.369l3.87 3.87 1.87-1.87c.275-.275.646-.305.873-.276.265.033.633.18.828.57l.035.07 2.922 11.084c.122.487-.062.963-.337 1.264-.277.302-.787.556-1.341.328L7.134 16.79a.892.892 0 0 1-.54-.288.964.964 0 0 1-.232-.508 1.095 1.095 0 0 1 .024-.427.978.978 0 0 1 .25-.447l1.876-1.876-3.879-3.967a1.317 1.317 0 0 1-.366-.927c0-.299.097-.658.37-.93l2.8-2.8c.272-.273.631-.37.93-.37Z" clip-rule="evenodd"/>
</svg>
